public/mosaic-pattern.svg

<svg xmlns="http://www.w3.org/2000/svg" width="100" height="100" viewBox="0 0 100 100" fill="none"><defs><pattern id="g" width="100" height="100" patternUnits="userSpaceOnUse"><g stroke="#D4AF37" stroke-width=".45" stroke-linecap="round" stroke-linejoin="round" opacity=".95" fill="none"><path d="M50 8 78 22 92 50 78 78 50 92 22 78 8 50 22 22Z"/><path d="M50 8v42H8M50 8v42h42M50 92V50H8M50 92V50h42"/><path d="M22 22q28 28 0 56M78 22q-28 28 0 56M22 78q28-28 0-56M78 78q-28-28 0-56"/><path d="M50 32l4 14h14l-11 8 4 14-11-8-11 8 4-14-11-8h14z" stroke-width=".35"/></g></pattern></defs><rect width="100" height="100" fill="url(#g)"/></svg>

<svg xmlns="http://www.w3.org/2000/svg" width="400" height="400" viewBox="0 0 400 400" fill="none">
  <defs>
    <pattern id="girihCell" width="100" height="100" patternUnits="userSpaceOnUse" patternContentUnits="userSpaceOnUse">
      <g stroke="#D4AF37" stroke-width="0.45" stroke-linecap="round" stroke-linejoin="round" opacity="0.95">
        <!-- octagon frame -->
        <path d="M50 8 L78 22 L92 50 L78 78 L50 92 L22 78 L8 50 L22 22 Z" fill="none"/>
        <!-- interlace / strapwork -->
        <path d="M50 8 Q50 50 8 50 M50 8 Q50 50 92 50 M50 92 Q50 50 8 50 M50 92 Q50 50 92 50" fill="none"/>
        <path d="M22 22 Q50 50 22 78 M78 22 Q50 50 78 78 M22 78 Q50 50 78 22 M78 78 Q50 50 22 22" fill="none"/>
        <!-- corner swirls -->
        <path d="M8 8 Q20 20 8 35 M8 8 Q35 20 35 8"/>
        <path d="M92 8 Q80 20 92 35 M92 8 Q65 20 65 8"/>
        <path d="M8 92 Q20 80 8 65 M8 92 Q35 80 35 92"/>
        <path d="M92 92 Q80 80 92 65 M92 92 Q65 80 65 92"/>
        <!-- micro star -->
        <path d="M50 32 L54 46 L68 46 L57 54 L61 68 L50 60 L39 68 L43 54 L32 46 L46 46 Z" fill="none" stroke-width="0.35"/>
      </g>
    </pattern>
  </defs>
  <rect width="400" height="400" fill="url(#girihCell)"/>
  <g stroke="#D4AF37" stroke-width="0.35" stroke-linecap="round" opacity="0.85">
    <path d="M0 200 Q100 120 200 200 T400 200"/>
    <path d="M200 0 Q280 100 200 200 T200 400"/>
    <path d="M0 0 Q200 80 400 0"/>
    <path d="M0 400 Q200 320 400 400"/>
    <ellipse cx="200" cy="200" rx="160" ry="100" transform="rotate(42 200 200)" fill="none"/>
    <ellipse cx="200" cy="200" rx="100" ry="160" transform="rotate(-42 200 200)" fill="none"/>
  </g>
</svg>
